temp/img/about-us-page/dm-landscape-image.svg

<svg width="234" height="234" viewBox="0 0 234 234" fill="none" xmlns="http://www.w3.org/2000/svg">
<mask id="mask0" mask-type="alpha" maskUnits="userSpaceOnUse" x="0" y="0" width="234" height="234">
<path d="M218.4 31.2H210.6V15.6C210.6 6.98496 203.615 0 195 0H39C30.385 0 23.4 6.98496 23.4 15.6V31.2H15.6C6.98496 31.2 0 38.185 0 46.8V179.4C0 188.015 6.98496 195 15.6 195H92.2575L82.8979 226.2H74.1V234H159.9V226.2H151.102L141.743 195H218.4C227.015 195 234 188.015 234 179.4V46.8C234 38.185 227.015 31.2 218.4 31.2ZM7.8 46.8C7.8 42.4925 11.2925 39 15.6 39H23.4V156H31.2V15.6C31.2 11.2925 34.6925 7.8 39 7.8H195C199.308 7.8 202.8 11.2925 202.8 15.6V156H210.6V39H218.4C222.708 39 226.2 42.4925 226.2 46.8V163.8H7.8V46.8ZM142.957 226.2H91.0425L100.402 195H133.598L142.957 226.2ZM226.2 179.4C226.2 183.708 222.708 187.2 218.4 187.2H15.6C11.2925 187.2 7.8 183.708 7.8 179.4V171.6H226.2V179.4Z" fill="black"/>
<path d="M39 19.5C39 17.3461 40.7461 15.6 42.9 15.6C45.0539 15.6 46.8 17.3461 46.8 19.5C46.8 21.6539 45.0539 23.4 42.9 23.4C40.7461 23.4 39 21.6539 39 19.5Z" fill="black"/>
<path d="M54.6 19.5C54.6 17.3461 56.3461 15.6 58.5 15.6C60.6539 15.6 62.4 17.3461 62.4 19.5C62.4 21.6539 60.6539 23.4 58.5 23.4C56.3461 23.4 54.6 21.6539 54.6 19.5Z" fill="black"/>
<path d="M70.2 19.5C70.2 17.3461 71.946 15.6 74.1 15.6C76.2539 15.6 78 17.3461 78 19.5C78 21.6539 76.2539 23.4 74.1 23.4C71.946 23.4 70.2 21.6539 70.2 19.5Z" fill="black"/>
<path d="M168.563 71.5439C168.094 69.4417 169.417 67.3573 171.519 66.888L184.072 64.0857C186.174 63.6164 188.259 64.94 188.728 67.0422C189.198 69.1447 187.874 71.2299 185.771 71.6992L173.219 74.5012C171.117 74.9706 169.032 73.6465 168.563 71.5439Z" fill="black"/>
<path d="M159.9 35.1C158.377 33.5771 158.377 31.108 159.9 29.5849L166.084 23.3993C167.608 21.8758 170.078 21.8757 171.601 23.3991C173.124 24.9224 173.124 27.3923 171.601 28.9156L165.415 35.1002C163.892 36.623 161.423 36.6229 159.9 35.1Z" fill="black"/>
<path d="M177.246 110.535C175.319 109.572 174.539 107.229 175.502 105.302C176.465 103.375 178.808 102.594 180.735 103.558L189.357 107.869C191.283 108.833 192.064 111.175 191.101 113.101C190.138 115.028 187.795 115.809 185.868 114.846L177.246 110.535Z" fill="black"/>
<path d="M149.468 25.0034C148.002 18.4469 141.501 14.3184 134.944 15.7828C128.388 17.2472 124.259 23.7504 125.724 30.3069L126.925 35.6884L77.8668 66.6352L58.3668 70.9884C46.6211 73.5516 38.463 84.2518 39.0991 96.2584C39.737 108.265 48.9805 118.042 60.9338 119.348L67.5874 149.152C68.0596 151.247 70.1391 152.565 72.2358 152.1L88.3671 148.497C90.4694 148.029 91.7967 145.943 91.3263 143.839L84.9698 115.37L88.5727 114.566L146.134 121.707L147.303 126.921C148.543 132.472 153.46 136.426 159.148 136.441C162.842 136.443 166.339 134.767 168.65 131.886C170.964 129.005 171.844 125.228 171.042 121.622L149.468 25.0034ZM47.358 98.6121C45.3452 89.5781 51.0295 80.6241 60.0597 78.5999L76.4176 74.9493L80.07 91.3072L83.7206 107.663L79.4664 108.615L67.376 111.318C58.3439 113.327 49.3918 107.64 47.3694 98.6121H47.358ZM82.8484 141.725L74.3267 143.63L68.8233 118.977L69.0308 118.931L77.3259 117.078L82.8484 141.725ZM91.572 107.086L83.772 72.1272L128.723 43.7741L144.323 113.626L91.572 107.086ZM160.212 128.513C159.072 128.79 157.87 128.597 156.872 127.978C155.876 127.359 155.172 126.365 154.917 125.221L133.337 28.6026C133.086 27.4733 133.291 26.2907 133.912 25.3157C134.533 24.3407 135.516 23.6514 136.645 23.4C138.997 22.8744 141.329 24.356 141.855 26.7078L163.41 123.322C163.916 125.632 162.499 127.929 160.209 128.513H160.212Z" fill="black"/>
</mask>
<g mask="url(#mask0)">
<path d="M218.4 31.2H210.6V15.6C210.6 6.98496 203.615 0 195 0H39C30.385 0 23.4 6.98496 23.4 15.6V31.2H15.6C6.98496 31.2 0 38.185 0 46.8V179.4C0 188.015 6.98496 195 15.6 195H92.2575L82.8979 226.2H74.1V234H159.9V226.2H151.102L141.743 195H218.4C227.015 195 234 188.015 234 179.4V46.8C234 38.185 227.015 31.2 218.4 31.2ZM7.8 46.8C7.8 42.4925 11.2925 39 15.6 39H23.4V156H31.2V15.6C31.2 11.2925 34.6925 7.8 39 7.8H195C199.308 7.8 202.8 11.2925 202.8 15.6V156H210.6V39H218.4C222.708 39 226.2 42.4925 226.2 46.8V163.8H7.8V46.8ZM142.957 226.2H91.0425L100.402 195H133.598L142.957 226.2ZM226.2 179.4C226.2 183.708 222.708 187.2 218.4 187.2H15.6C11.2925 187.2 7.8 183.708 7.8 179.4V171.6H226.2V179.4Z" fill="black"/>
<path d="M39 19.5C39 17.3461 40.7461 15.6 42.9 15.6C45.0539 15.6 46.8 17.3461 46.8 19.5C46.8 21.6539 45.0539 23.4 42.9 23.4C40.7461 23.4 39 21.6539 39 19.5Z" fill="black"/>
<path d="M54.6 19.5C54.6 17.3461 56.3461 15.6 58.5 15.6C60.6539 15.6 62.4 17.3461 62.4 19.5C62.4 21.6539 60.6539 23.4 58.5 23.4C56.3461 23.4 54.6 21.6539 54.6 19.5Z" fill="black"/>
<path d="M70.2 19.5C70.2 17.3461 71.946 15.6 74.1 15.6C76.2539 15.6 78 17.3461 78 19.5C78 21.6539 76.2539 23.4 74.1 23.4C71.946 23.4 70.2 21.6539 70.2 19.5Z" fill="black"/>
<path d="M168.563 71.5439C168.094 69.4417 169.417 67.3573 171.519 66.888L184.072 64.0857C186.174 63.6164 188.259 64.94 188.728 67.0422C189.198 69.1447 187.874 71.2299 185.771 71.6992L173.219 74.5012C171.117 74.9706 169.032 73.6465 168.563 71.5439Z" fill="black"/>
<path d="M159.9 35.1C158.377 33.5771 158.377 31.108 159.9 29.5849L166.084 23.3993C167.608 21.8758 170.078 21.8757 171.601 23.3991C173.124 24.9224 173.124 27.3923 171.601 28.9156L165.415 35.1002C163.892 36.623 161.423 36.6229 159.9 35.1Z" fill="black"/>
<path d="M177.246 110.535C175.319 109.572 174.539 107.229 175.502 105.302C176.465 103.375 178.808 102.594 180.735 103.558L189.357 107.869C191.283 108.833 192.064 111.175 191.101 113.101C190.138 115.028 187.795 115.809 185.868 114.846L177.246 110.535Z" fill="black"/>
<path d="M149.468 25.0034C148.002 18.4469 141.501 14.3184 134.944 15.7828C128.388 17.2472 124.259 23.7504 125.724 30.3069L126.925 35.6884L77.8668 66.6352L58.3668 70.9884C46.6211 73.5516 38.463 84.2518 39.0991 96.2584C39.737 108.265 48.9805 118.042 60.9338 119.348L67.5874 149.152C68.0596 151.247 70.1391 152.565 72.2358 152.1L88.3671 148.497C90.4694 148.029 91.7967 145.943 91.3263 143.839L84.9698 115.37L88.5727 114.566L146.134 121.707L147.303 126.921C148.543 132.472 153.46 136.426 159.148 136.441C162.842 136.443 166.339 134.767 168.65 131.886C170.964 129.005 171.844 125.228 171.042 121.622L149.468 25.0034ZM47.358 98.6121C45.3452 89.5781 51.0295 80.6241 60.0597 78.5999L76.4176 74.9493L80.07 91.3072L83.7206 107.663L79.4664 108.615L67.376 111.318C58.3439 113.327 49.3918 107.64 47.3694 98.6121H47.358ZM82.8484 141.725L74.3267 143.63L68.8233 118.977L69.0308 118.931L77.3259 117.078L82.8484 141.725ZM91.572 107.086L83.772 72.1272L128.723 43.7741L144.323 113.626L91.572 107.086ZM160.212 128.513C159.072 128.79 157.87 128.597 156.872 127.978C155.876 127.359 155.172 126.365 154.917 125.221L133.337 28.6026C133.086 27.4733 133.291 26.2907 133.912 25.3157C134.533 24.3407 135.516 23.6514 136.645 23.4C138.997 22.8744 141.329 24.356 141.855 26.7078L163.41 123.322C163.916 125.632 162.499 127.929 160.209 128.513H160.212Z" fill="black"/>
<rect x="-52.4574" y="-30.0001" width="323.168" height="262.954" rx="25" fill="url(#paint0_linear)"/>
<path fill-rule="evenodd" clip-rule="evenodd" d="M-122 137.895C-122 137.895 -82.0511 -76.8968 10.6344 54.4214C85.8398 160.973 94.7748 173.699 129.354 152.431C169.904 127.49 177.383 54.4214 197.558 54.4214C217.733 54.4214 247.475 182.351 263.855 160.973C280.234 139.596 292.95 75.3694 326.309 75.3694C359.667 75.3694 354.811 154.691 354.811 154.691L341.028 247.327L142.873 234.093L-117.206 264.632" fill="url(#paint1_linear)"/>
</g>
<defs>
<linearGradient id="paint0_linear" x1="-52.4574" y1="101.477" x2="268.875" y2="101.769" gradientUnits="userSpaceOnUse">
<stop stop-color="#459622"/>
<stop offset="1" stop-color="#B0E94F"/>
</linearGradient>
<linearGradient id="paint1_linear" x1="337.822" y1="84.9465" x2="-91.511" y2="87.3474" gradientUnits="userSpaceOnUse">
<stop stop-color="#5CA82C"/>
<stop offset="0.0001" stop-color="#68B231"/>
<stop offset="1" stop-color="#A6E24B"/>
</linearGradient>
</defs>
</svg>

<svg width="234" height="234" viewBox="0 0 234 234" fill="none" xmlns="http://www.w3.org/2000/svg"><mask id="a" maskUnits="userSpaceOnUse" x="0" y="0" width="234" height="234"><path d="M218.4 31.2h-7.8V15.6C210.6 6.985 203.615 0 195 0H39c-8.615 0-15.6 6.985-15.6 15.6v15.6h-7.8C6.985 31.2 0 38.185 0 46.8v132.6c0 8.615 6.985 15.6 15.6 15.6h76.657l-9.36 31.2H74.1v7.8h85.8v-7.8h-8.798l-9.359-31.2H218.4c8.615 0 15.6-6.985 15.6-15.6V46.8c0-8.615-6.985-15.6-15.6-15.6zM7.8 46.8a7.8 7.8 0 0 1 7.8-7.8h7.8v117h7.8V15.6A7.8 7.8 0 0 1 39 7.8h156a7.8 7.8 0 0 1 7.8 7.8V156h7.8V39h7.8a7.8 7.8 0 0 1 7.8 7.8v117H7.8v-117zm135.157 179.4H91.043l9.359-31.2h33.196l9.359 31.2zm83.243-46.8a7.8 7.8 0 0 1-7.8 7.8H15.6a7.8 7.8 0 0 1-7.8-7.8v-7.8h218.4v7.8z" fill="#000"/><path d="M39 19.5a3.9 3.9 0 1 1 7.8 0 3.9 3.9 0 0 1-7.8 0zm15.6 0a3.9 3.9 0 1 1 7.8 0 3.9 3.9 0 0 1-7.8 0zm15.6 0a3.9 3.9 0 1 1 7.8 0 3.9 3.9 0 0 1-7.8 0zm98.363 52.044a3.9 3.9 0 0 1 2.956-4.656l12.553-2.802a3.9 3.9 0 1 1 1.699 7.613l-12.552 2.802a3.9 3.9 0 0 1-4.656-2.957zM159.9 35.1a3.9 3.9 0 0 1 0-5.515l6.184-6.186a3.901 3.901 0 0 1 5.517 5.517l-6.186 6.184a3.9 3.9 0 0 1-5.515 0zm17.346 75.435a3.9 3.9 0 1 1 3.489-6.977l8.622 4.311a3.9 3.9 0 0 1-3.489 6.977l-8.622-4.311zm-27.778-85.532c-1.466-6.556-7.967-10.685-14.524-9.22-6.556 1.464-10.685 7.967-9.22 14.524l1.201 5.381-49.058 30.947-19.5 4.353c-11.746 2.564-19.904 13.264-19.268 25.27.638 12.007 9.882 21.784 21.835 23.09l6.653 29.804a3.9 3.9 0 0 0 4.649 2.948l16.131-3.603a3.901 3.901 0 0 0 2.96-4.658L84.97 115.37l3.603-.804 57.561 7.141 1.169 5.214a12.171 12.171 0 0 0 11.845 9.52 12.175 12.175 0 0 0 9.502-4.555 12.173 12.173 0 0 0 2.392-10.264l-21.574-96.619zm-102.11 73.61C45.345 89.577 51.03 80.623 60.06 78.6l16.358-3.65 3.652 16.357 3.65 16.356-4.254.952-12.09 2.703c-9.032 2.009-17.984-3.678-20.007-12.706h-.011zm35.49 43.112l-8.521 1.905-5.504-24.653.208-.046 8.295-1.853 5.522 24.647zm8.724-34.639l-7.8-34.959 44.951-28.353 15.6 69.852-52.751-6.54zm68.64 21.427a4.363 4.363 0 0 1-5.295-3.292l-21.58-96.618a4.357 4.357 0 0 1 3.308-5.203 4.364 4.364 0 0 1 5.21 3.308l21.555 96.614a4.39 4.39 0 0 1-3.201 5.191h.003z" fill="#000"/></mask><g mask="url(#a)"><path d="M218.4 31.2h-7.8V15.6C210.6 6.985 203.615 0 195 0H39c-8.615 0-15.6 6.985-15.6 15.6v15.6h-7.8C6.985 31.2 0 38.185 0 46.8v132.6c0 8.615 6.985 15.6 15.6 15.6h76.657l-9.36 31.2H74.1v7.8h85.8v-7.8h-8.798l-9.359-31.2H218.4c8.615 0 15.6-6.985 15.6-15.6V46.8c0-8.615-6.985-15.6-15.6-15.6zM7.8 46.8a7.8 7.8 0 0 1 7.8-7.8h7.8v117h7.8V15.6A7.8 7.8 0 0 1 39 7.8h156a7.8 7.8 0 0 1 7.8 7.8V156h7.8V39h7.8a7.8 7.8 0 0 1 7.8 7.8v117H7.8v-117zm135.157 179.4H91.043l9.359-31.2h33.196l9.359 31.2zm83.243-46.8a7.8 7.8 0 0 1-7.8 7.8H15.6a7.8 7.8 0 0 1-7.8-7.8v-7.8h218.4v7.8z" fill="#000"/><path d="M39 19.5a3.9 3.9 0 1 1 7.8 0 3.9 3.9 0 0 1-7.8 0zm15.6 0a3.9 3.9 0 1 1 7.8 0 3.9 3.9 0 0 1-7.8 0zm15.6 0a3.9 3.9 0 1 1 7.8 0 3.9 3.9 0 0 1-7.8 0zm98.363 52.044a3.9 3.9 0 0 1 2.956-4.656l12.553-2.802a3.9 3.9 0 1 1 1.699 7.613l-12.552 2.802a3.9 3.9 0 0 1-4.656-2.957zM159.9 35.1a3.9 3.9 0 0 1 0-5.515l6.184-6.186a3.901 3.901 0 0 1 5.517 5.517l-6.186 6.184a3.9 3.9 0 0 1-5.515 0zm17.346 75.435a3.9 3.9 0 1 1 3.489-6.977l8.622 4.311a3.9 3.9 0 0 1-3.489 6.977l-8.622-4.311zm-27.778-85.532c-1.466-6.556-7.967-10.685-14.524-9.22-6.556 1.464-10.685 7.967-9.22 14.524l1.201 5.381-49.058 30.947-19.5 4.353c-11.746 2.564-19.904 13.264-19.268 25.27.638 12.007 9.882 21.784 21.835 23.09l6.653 29.804a3.9 3.9 0 0 0 4.649 2.948l16.131-3.603a3.901 3.901 0 0 0 2.96-4.658L84.97 115.37l3.603-.804 57.561 7.141 1.169 5.214a12.171 12.171 0 0 0 11.845 9.52 12.175 12.175 0 0 0 9.502-4.555 12.173 12.173 0 0 0 2.392-10.264l-21.574-96.619zm-102.11 73.61C45.345 89.577 51.03 80.623 60.06 78.6l16.358-3.65 3.652 16.357 3.65 16.356-4.254.952-12.09 2.703c-9.032 2.009-17.984-3.678-20.007-12.706h-.011zm35.49 43.112l-8.521 1.905-5.504-24.653.208-.046 8.295-1.853 5.522 24.647zm8.724-34.639l-7.8-34.959 44.951-28.353 15.6 69.852-52.751-6.54zm68.64 21.427a4.363 4.363 0 0 1-5.295-3.292l-21.58-96.618a4.357 4.357 0 0 1 3.308-5.203 4.364 4.364 0 0 1 5.21 3.308l21.555 96.614a4.39 4.39 0 0 1-3.201 5.191h.003z" fill="#000"/><rect x="-52.457" y="-30" width="323.168" height="262.954" rx="25" fill="url(#paint0_linear)"/><path fill-rule="evenodd" clip-rule="evenodd" d="M-122 137.895S-82.051-76.897 10.634 54.421c75.206 106.552 84.14 119.278 118.72 98.01 40.55-24.941 48.029-98.01 68.204-98.01 20.175 0 49.917 127.93 66.297 106.552 16.379-21.377 29.095-85.604 62.454-85.604 33.358 0 28.502 79.322 28.502 79.322l-13.783 92.636-198.155-13.234-260.079 30.539" fill="url(#paint1_linear)"/></g><defs><linearGradient id="paint0_linear" x1="-52.457" y1="101.477" x2="268.875" y2="101.769" gradientUnits="userSpaceOnUse"><stop stop-color="#459622"/><stop offset="1" stop-color="#B0E94F"/></linearGradient><linearGradient id="paint1_linear" x1="337.822" y1="84.947" x2="-91.511" y2="87.347" gradientUnits="userSpaceOnUse"><stop stop-color="#5CA82C"/><stop offset="0" stop-color="#68B231"/><stop offset="1" stop-color="#A6E24B"/></linearGradient></defs></svg>
